X:375
T: Clonco
S: B.Breathnach: "Ceol Rince na hEireann" II/82 (gan ainm)
Z: B.Black
L: 1/8
M: 12/8
R: slide
Q: 375
K: Ador
G|E2A AGE A2B c2G|EDE G2E A2E GED|
E2A AGE A2B c2d|1 efg dBG ABA A2 :|
|2 efg dBG A3||
AB/c/d|e2a aga bag a2g|ede g2e a2e ged|
e2a aga bag a2g|1 efg dBG A3 :|2 efg dBG A3 A2||
